T: Darkie's Dream, The
M: 4/4
L: 1/8
K: Gmaj
D2 EF GB B2 | A2 GA Bd d2 | g2 fe dBGB | G2 FG A2 d2 |D2 EF GBBG | A2 GA Bddf | g2 fe dBGB | A^GAB G2 :|gfga gd B2 | dedB d2 ef | gfga gd B2 | dedB A2 ef |g2 ga gdBc | d2 d^c d2 ef | g2 fg e2 de | c2 Bc A2 d2 |D2 EF G2 B2 | ABGA Bd d2 | g2 fe dBGB | GEFG A4 |D2 EF GBBG | A2 GA Bddf | g2 fe dB G2 | A2 AB G2 |]
